X:1
%
T:House of Clova, The
C:Alexander Walker
M:6/8
L:1/8
R:Jig
B:Walker - Collection of Strathspeys, Reels, Marches etc. (1866, p. 19)
Z:AK/Fiddler's Companion
F:http://digital.nls.uk/special-collections-of-printed-music/archive/105875323?mode=zoom
K:Bb
F|BcB AGF|GAB FDB,|Bcd DEF|G2C C2F|
BcB AGF|GAB cdf|bab cdf|g2G G2:|
g|fdB F2B|GAB F2B|E2G D2F|GEC C2g|
fdB F2B|GAB F2B|efg cde|dBB B2g|
fdB F2B|GAB F2B|E2G D2F|GEC C2a|
bag fed|gfe dcB|ABc FGA|B2B, B,2||

